actions/24/go-down.svg

<?xml version="1.0" encoding="UTF-8" standalone="no"?>
<!-- Created with Inkscape (http://www.inkscape.org/) -->

<svg
   xmlns:dc="http://purl.org/dc/elements/1.1/"
   xmlns:cc="http://creativecommons.org/ns#"
   xmlns:rdf="http://www.w3.org/1999/02/22-rdf-syntax-ns#"
   xmlns:svg="http://www.w3.org/2000/svg"
   xmlns="http://www.w3.org/2000/svg"
   xmlns:xlink="http://www.w3.org/1999/xlink"
   xmlns:inkscape="http://www.inkscape.org/namespaces/inkscape"
   version="1.0"
   width="24"
   height="24"
   id="svg2497">
  <defs
     id="defs2499">
    <linearGradient
       id="linearGradient5105-262-943-861">
      <stop
         id="stop2487"
         style="stop-color:#0d0d0d;stop-opacity:1"
         offset="0" />
      <stop
         id="stop2489"
         style="stop-color:#0d0d0d;stop-opacity:0"
         offset="1" />
    </linearGradient>
    <radialGradient
       cx="11.25"
       cy="19.03125"
       r="8.0625"
       fx="11.25"
       fy="19.03125"
       id="radialGradient2505"
       xlink:href="#linearGradient5105-262-943-861"
       gradientUnits="userSpaceOnUse"
       gradientTransform="matrix(1,0,0,0.282946,0,13.64644)" />
    <linearGradient
       id="linearGradient2264">
      <stop
         id="stop2266"
         style="stop-color:#d7e866;stop-opacity:1"
         offset="0" />
      <stop
         id="stop2268"
         style="stop-color:#8cab2a;stop-opacity:1"
         offset="1" />
    </linearGradient>
    <linearGradient
       x1="28.314739"
       y1="20.709501"
       x2="0.81572169"
       y2="20.709501"
       id="linearGradient3292"
       xlink:href="#linearGradient2264"
       gradientUnits="userSpaceOnUse"
       gradientTransform="matrix(0,-0.4917505,-0.482368,0,23.524238,22.407852)" />
    <linearGradient
       id="linearGradient4222">
      <stop
         id="stop4224"
         style="stop-color:#ffffff;stop-opacity:1"
         offset="0" />
      <stop
         id="stop4226"
         style="stop-color:#ffffff;stop-opacity:0"
         offset="1" />
    </linearGradient>
    <linearGradient
       x1="13.471772"
       y1="25.410501"
       x2="57.726395"
       y2="25.410501"
       id="linearGradient3294"
       xlink:href="#linearGradient4222"
       gradientUnits="userSpaceOnUse"
       gradientTransform="matrix(0,0.5703354,-0.5568703,0,26.661377,-2.8655828)" />
  </defs>
  <metadata
     id="metadata2502">
    <rdf:RDF>
      <cc:Work
         rdf:about="">
        <dc:format>image/svg+xml</dc:format>
        <dc:type
           rdf:resource="http://purl.org/dc/dcmitype/StillImage" />
      </cc:Work>
    </rdf:RDF>
  </metadata>
  <g
     id="layer1">
    <path
       d="m 19.3125,19.03125 a 8.0625,2.28125 0 1 1 -16.125,0 8.0625,2.28125 0 1 1 16.125,0 z"
       transform="matrix(1.4883719,0,0,1.4465766,-4.7441844,-6.8301629)"
       id="path4346"
       style="opacity:0.16292138;fill:url(#radialGradient2505);fill-opacity:1;fill-rule:nonzero;stroke:none;stroke-width:1;marker:none;visibility:visible;display:inline;overflow:visible" />
    <path
       d="m 21.507286,10.499999 -9.53117,11.007287 -9.483402,-11.007287 4.007286,0 0,-9.0072858 11,0 0,9.0072858 4.007286,0 z"
       inkscape:connector-curvature="0"
       id="path3288"
       style="fill:url(#linearGradient3292);fill-opacity:1;fill-rule:nonzero;stroke:#699536;stroke-width:0.98542732;stroke-linecap:round;stroke-linejoin:round;stroke-miterlimit:4;stroke-opacity:1;stroke-dasharray:none;stroke-dashoffset:0;marker:none;visibility:visible;display:inline;overflow:visible" />
    <path
       d="M 19.3874,11.499999 12,20.032054 4.661523,11.499999 l 2.838477,0 0,-8.9999998 9,0 0,8.9999998 2.8874,0 z"
       inkscape:connector-curvature="0"
       id="path3290"
       style="opacity:0.35400008;fill:none;stroke:url(#linearGradient3294);stroke-width:0.98542732;stroke-linecap:butt;stroke-linejoin:miter;stroke-miterlimit:4;stroke-opacity:1;stroke-dasharray:none;stroke-dashoffset:0;marker:none;visibility:visible;display:inline;overflow:visible" />
  </g>
</svg>

<?xml version="1.0" encoding="UTF-8" standalone="no"?>
<!-- Created with Inkscape (http://www.inkscape.org/) -->
<svg
   xmlns:dc="http://purl.org/dc/elements/1.1/"
   xmlns:cc="http://creativecommons.org/ns#"
   xmlns:rdf="http://www.w3.org/1999/02/22-rdf-syntax-ns#"
   xmlns:svg="http://www.w3.org/2000/svg"
   xmlns="http://www.w3.org/2000/svg"
   xmlns:xlink="http://www.w3.org/1999/xlink"
   xmlns:sodipodi="http://sodipodi.sourceforge.net/DTD/sodipodi-0.dtd"
   xmlns:inkscape="http://www.inkscape.org/namespaces/inkscape"
   width="24"
   height="24"
   id="svg2497"
   sodipodi:version="0.32"
   inkscape:version="0.46"
   version="1.0"
   sodipodi:docname="go-down.svg"
   inkscape:output_extension="org.inkscape.output.svg.inkscape">
  <defs
     id="defs2499">
    <linearGradient
       inkscape:collect="always"
       id="linearGradient5105-262-943-861">
      <stop
         offset="0"
         id="stop2487"
         style="stop-color:#0d0d0d;stop-opacity:1;" />
      <stop
         offset="1"
         id="stop2489"
         style="stop-color:#0d0d0d;stop-opacity:0;" />
    </linearGradient>
    <radialGradient
       inkscape:collect="always"
       xlink:href="#linearGradient5105-262-943-861"
       id="radialGradient2505"
       gradientUnits="userSpaceOnUse"
       gradientTransform="matrix(1,0,0,0.282946,0,13.64644)"
       cx="11.25"
       cy="19.03125"
       fx="11.25"
       fy="19.03125"
       r="8.0625" />
    <linearGradient
       id="linearGradient2264">
      <stop
         style="stop-color:#d7e866;stop-opacity:1;"
         offset="0"
         id="stop2266" />
      <stop
         style="stop-color:#8cab2a;stop-opacity:1;"
         offset="1"
         id="stop2268" />
    </linearGradient>
    <linearGradient
       inkscape:collect="always"
       xlink:href="#linearGradient2264"
       id="linearGradient3292"
       gradientUnits="userSpaceOnUse"
       gradientTransform="matrix(0,-0.4917505,-0.482368,0,23.524238,22.407852)"
       x1="28.314739"
       y1="20.709501"
       x2="0.81572169"
       y2="20.709501" />
    <linearGradient
       inkscape:collect="always"
       id="linearGradient4222">
      <stop
         style="stop-color:#ffffff;stop-opacity:1;"
         offset="0"
         id="stop4224" />
      <stop
         style="stop-color:#ffffff;stop-opacity:0;"
         offset="1"
         id="stop4226" />
    </linearGradient>
    <linearGradient
       inkscape:collect="always"
       xlink:href="#linearGradient4222"
       id="linearGradient3294"
       gradientUnits="userSpaceOnUse"
       gradientTransform="matrix(0,0.5703354,-0.5568703,0,26.661377,-2.8655828)"
       x1="13.471772"
       y1="25.410501"
       x2="57.726395"
       y2="25.410501" />
  </defs>
  <sodipodi:namedview
     id="base"
     pagecolor="#ffffff"
     bordercolor="#666666"
     borderopacity="1.0"
     inkscape:pageopacity="0.0"
     inkscape:pageshadow="2"
     inkscape:zoom="11.197802"
     inkscape:cx="16"
     inkscape:cy="16"
     inkscape:current-layer="layer1"
     showgrid="true"
     inkscape:grid-bbox="true"
     inkscape:document-units="px"
     inkscape:window-width="640"
     inkscape:window-height="720"
     inkscape:window-x="800"
     inkscape:window-y="24" />
  <metadata
     id="metadata2502">
    <rdf:RDF>
      <cc:Work
         rdf:about="">
        <dc:format>image/svg+xml</dc:format>
        <dc:type
           rdf:resource="http://purl.org/dc/dcmitype/StillImage" />
      </cc:Work>
    </rdf:RDF>
  </metadata>
  <g
     id="layer1"
     inkscape:label="Layer 1"
     inkscape:groupmode="layer">
    <path
       id="path4346"
       sodipodi:cx="11.25"
       sodipodi:cy="19.03125"
       transform="matrix(1.4883719,0,0,1.4465766,-4.7441844,-6.8301629)"
       d="M 19.3125,19.03125 A 8.0625,2.28125 0 1 1 3.1875,19.03125 A 8.0625,2.28125 0 1 1 19.3125,19.03125 z"
       sodipodi:type="arc"
       style="display:inline;opacity:0.16292138000000000;fill:url(#radialGradient2505);fill-opacity:1;fill-rule:nonzero;stroke:none;stroke-width:1;stroke-linecap:butt;stroke-linejoin:miter;marker:none;marker-start:none;marker-mid:none;marker-end:none;stroke-miterlimit:4;stroke-dasharray:none;stroke-dashoffset:0;stroke-opacity:1;visibility:visible;overflow:visible"
       sodipodi:ry="2.28125"
       sodipodi:rx="8.0625" />
    <path
       id="path3288"
       d="M 21.507286,10.499999 L 11.976116,21.507286 L 2.492714,10.499999 L 6.5,10.499999 L 6.5,1.4927132 L 17.5,1.4927132 L 17.5,10.499999 L 21.507286,10.499999 z"
       style="display:inline;fill:url(#linearGradient3292);fill-opacity:1;fill-rule:nonzero;stroke:#699536;stroke-width:0.98542732000000000;stroke-linecap:round;stroke-linejoin:round;marker:none;marker-start:none;marker-mid:none;marker-end:none;stroke-miterlimit:4;stroke-dasharray:none;stroke-dashoffset:0;stroke-opacity:1;visibility:visible;overflow:visible"
       sodipodi:nodetypes="cccccccc" />
    <path
       id="path3290"
       d="M 19.3874,11.499999 L 12,20.032054 L 4.661523,11.499999 L 7.5,11.499999 L 7.5,2.4999992 L 16.5,2.4999992 L 16.5,11.499999 L 19.3874,11.499999 z"
       style="display:inline;opacity:0.35400002000000003;fill:none;fill-opacity:1;fill-rule:nonzero;stroke:url(#linearGradient3294);stroke-width:0.98542732000000000;stroke-linecap:butt;stroke-linejoin:miter;marker:none;marker-start:none;marker-mid:none;marker-end:none;stroke-miterlimit:4;stroke-dasharray:none;stroke-dashoffset:0;stroke-opacity:1;visibility:visible;overflow:visible"
       sodipodi:nodetypes="cccccccc" />
  </g>
</svg>
